!!!OTL: GEH MIT DR DORDEL
!!!ARE: Europa, Mitteleuropa, Deutschland, Hessen, Darmstadt
!!!SCT: E1018
!!!YEM: Copyright 1995, estate of Helmut Schaffrath.
**kern
*ICvox
*Ivox
*M3/8
*k[b-]
*F:
=1
{8f
16a
16a
16a
16a
=2
8a
16cc
16cc
16cc
16cc}
=3
{8cc
8b-
8b-
=4
8cc
16a
16a
16a
16a}
=5
{8f
16a
16a
16a
16a
=6
8a
16cc
16cc
16cc
16cc}
=7
{8cc
8b-
8b-
=8
4a
8r}
=9
{16dd
16dd
8dd
8dd
=10
8dd
16cc
16cc
16cc
16cc}
=11
{24cc
24cc
24b-
8b-
8b-
=12
16cc
16cc
16a
16a
16a
16a}
=13
{8f
16a
16a
16a
16a
=14
8a
16cc
16cc
16cc
16cc}
=15
{8cc
8b-
8cc
=16
4a
16r}
{16cc
=17
4cc
16a
16cc
=18
4cc
16a
16r
=19
4r}
{24f
24f
24f
=20
8ff
4r}
==
!!!AGN: Tanz - Lied
!!!ONB: ESAC (Essen Associative Code) Database: ERK3
!!!AMT: simple triple
!!!AIN: vox
!!!EED: Helmut Schaffrath
!!!EEV: 1.0
*-
